X:1
T:[ID 5-55]
T:[ID 5-55]
T:Bezeichnung standardisiert: Menuet [mit Trio] Menuetto [mit Trio] Primo ex F In dieser Quelle auch als: Menuet
T:Urheber unbekannt Erstbeleg: 1773 (Datum in der schriftlichen Quelle) Datum in der hier transkribierten schriftlichen Quelle: 1776 - 1791
C:Urheber unbekannt
C:Erstbeleg: 1773 (Datum in der schriftlichen Quelle)
C:Datum in der hier transkribierten schriftlichen Quelle: 1776 - 1791
L:1/8
M:3/4
K:F
V:1 treble 
V:1
 c2 | g2 fe f2 | g4 ec | a2 afba |{a} g4 ec | a2 fa g2 | f2 df e2 | d2 c2 =B2 | c6 :: (c/B/A/G/) | %10
 .^F2 .F2 .F2 | G4 (B/A/G/=F/) | .E2 .E2 .E2 |{E} F4 c2 | f2 df e2 | g4 ed | a2 afba | g4 ec | %18
 f2 A2 G2 | F4 :|[M:3/4]"^Trio" !fermata!c4 d2 | c4 d2 | c2 B2 A2 |{A} G4 F2 | c4 d2 | c4 d2 | %26
 cB A2 G2 | F6 :: A2 B2 c2 | B2 A2 G2 | c4 d2 | c4 d2 | cB A2 G2 | F4 :| %34

